X:1
T:Fitchburg, 76.76.76 D
T:Fitchburg, 76.76.76 D
T:Alonzo Judson Abbey, 1881
T:Public Domain Courtesy of the Cyber Hymnal™
C:Alonzo Judson Abbey, 1881
Z:Public Domain
Z:Courtesy of the Cyber Hymnal™
%%score ( 1 2 ) ( 3 4 )
L:1/8
Q:1/4=77
M:4/4
K:Ab
V:1 treble 
V:2 treble 
V:3 bass 
V:4 bass 
V:1
 [CE] | [CA]>[CA] [DB]>[CA] ([EG][DF])[CE][CE] | [DF]>[FA] [FA]>[FB] [EA]3 [CA] | %3
 [Ec]>[Ec] [Fd]>[Ec] ([Ec]>[DB]) [CA][CA] | [EB]>[Ac] [GB]>[FA] [GB]3 [GB] | %5
 [GB]>[GB] [Ge]>[Gd] [Ad]2 [Ac][Ec] | [Ec]>[Ec] [=Ec]>[EB] [FA]3 [EG] | %7
 F>[FA] [EG]>[DF] [DF] [CE]2 [CA] | [B,G]>[CA] [DB]>[Ec] [CA]3 [GB] | %9
 [GB]<[GB] [Ge]>[Gd] [Ac]2 [Ae][Ac] | [GB]>[Ge] [F=d]>[Af] [Ge]3 [Ge] | %11
 [Ge]>[Gd] [Gd]>[Ge] (c>B) [EA][Ec] | [DB]>[DE] [DB]>[Ec] [CA]3 |] %13
V:2
 x | x8 | x8 | x8 | x8 | x8 | x8 | F3/2 x13/2 | x8 | x8 | x8 | x4 A2 x2 | x7 |] %13
V:3
 [A,,A,] | [A,,A,]>[A,,A,] [A,,A,]>[A,,A,] [A,,A,]2 [A,,A,][A,,A,] | %2
 [D,A,]>[D,D] [D,D]>[D,D] [A,,C]3 A, | A,>A, A,>A, A,2 A,[F,A,] | %4
 [E,G,]>[E,A,] [E,B,]>[E,C] [E,E]3 [E,E] | [E,E]>[E,E] [E,E]>[E,E] [A,E]2 [A,E][A,,C] | %6
 [A,,A,]>[A,,A,] [C,G,]>[C,C] [F,C]3 [C,B,] | %7
 [D,A,]>[D,A,] [D,A,]>[D,A,] [A,,A,] [A,,A,]2 [A,,E,] | E,>[E,A,] [E,G,]>[E,G,] [A,,A,]3 [E,E] | %9
 [E,E]<[E,E] [E,B,]>[E,E] [A,E]2 [A,C][A,E] | [B,E]>B, [B,,B,]>[B,,B,] [E,B,]3 [E,B,] | %11
 [E,B,]>[E,B,] [E,E]>[E,E] (E>D) [A,C]A, | [E,G,]>[E,G,] [E,G,]>[E,G,] [A,,A,]3 |] %13
V:4
 x | x8 | x7 A, | A,>A, A,>A, A,2 A, x | x8 | x8 | x8 | x8 | E,3/2 x13/2 | x8 | x3/2 B,/ x6 | %11
 x4 A,2 A, x | x7 |] %13

